svgs/moneywallet.svg

<svg width="192" height="192" viewBox="0 0 192 192" fill="none" xmlns="http://www.w3.org/2000/svg">
<path d="M157.905 39H28C24.6863 39 22 41.6863 22 45V146.524C22 149.838 24.6863 152.524 28 152.524H157.905C161.218 152.524 163.905 149.838 163.905 146.524V45C163.905 41.6863 161.218 39 157.905 39Z" stroke="black" stroke-width="12" stroke-linecap="round" stroke-linejoin="round"/>
<path d="M169 82H128C125.791 82 124 83.7909 124 86V106C124 108.209 125.791 110 128 110H169C171.209 110 173 108.209 173 106V86C173 83.7909 171.209 82 169 82Z" stroke="black" stroke-width="6" stroke-linecap="round" stroke-linejoin="round"/>
<circle cx="138.9" cy="95.7648" r="4.96667" stroke="black" stroke-width="6"/>
<path d="M80.6714 85.4143C80.6714 76.5845 73.8037 71.7609 67.1905 71.8337M54 106C54 116.103 60 120.5 67.1905 120.981M67.1905 120.981C73.9881 120.814 80.6714 117.173 80.6714 107.41C80.6714 97.2839 67.6465 96.1146 67.2021 96.0777C67.188 96.0765 67.1916 96.0769 67.1776 96.0751C66.737 96.0193 55.1286 94.4629 55.1286 85.4143C55.1286 76.1906 61.0498 71.9014 67.1905 71.8337M67.1905 120.981V129.5M67.1905 71.8337V62" stroke="black" stroke-width="12" stroke-linecap="round" stroke-linejoin="round"/>
</svg>

<svg width="192" height="192" viewBox="0 0 192 192" fill="none" xmlns="http://www.w3.org/2000/svg"><path d="M157.905 39H28a6 6 0 0 0-6 6v101.524a6 6 0 0 0 6 6h129.905a6 6 0 0 0 6-6V45a6 6 0 0 0-6-6Z" stroke="#000" stroke-width="12" stroke-linecap="round" stroke-linejoin="round"/><path d="M169 82h-41a4 4 0 0 0-4 4v20a4 4 0 0 0 4 4h41a4 4 0 0 0 4-4V86a4 4 0 0 0-4-4Z" stroke="#000" stroke-width="6" stroke-linecap="round" stroke-linejoin="round"/><circle cx="138.9" cy="95.765" r="4.967" stroke="#000" stroke-width="6"/><path d="M80.671 85.414c0-8.83-6.867-13.653-13.48-13.58M54 106c0 10.103 6 14.5 13.19 14.981m0 0c6.798-.167 13.481-3.808 13.481-13.571 0-10.126-13.025-11.295-13.469-11.332l-.024-.003c-.441-.056-12.05-1.612-12.05-10.66 0-9.224 5.922-13.514 12.063-13.581m0 49.147v8.519m0-57.666V62" stroke="#000" stroke-width="12" stroke-linecap="round" stroke-linejoin="round"/></svg>
